X: 1377
T: Muhayyer Peşrev
C: Tanburî Cemil Bey
O: Turkey
F: http://compmusic.upf.edu/node/140
N: muhayyer--pesrev--devrikebir----tanburi_cemil_bey
N: makam= muhayyer
N: form= pesrev
N: usul= devrikebir = 28/4
M: 28/4
L: 1/16
K: C _2/4B ^3/4f  
Q: 1/4=72
%%MIDI tuningsystem comma53
agf2 g2a2 g4 a4  | g4 a2b2 a2c'2 _1/4b2a2  | \
w:  1. HANE  |   | 
aga_1/4b a2g2 f3e d4  | 
w:   | 
z4 f2g2 f4 g4  | a2b2 a2c'2 b4 d'c'd'2  | \
w:   |   | 
c'2b4c'2 b4 a4  | g4 ac'ba a6z2  | 
w:   |   | 
g2f2 g2a2 g2a2 g2f2  | e6c'2 c'3_1/4b b3a  | \
w:   |   | 
a3g g3f agfe d4  | 
w:   | 
f4 g2f2 g4 a2_1/4b2  | a3g f2g2 f4 aga2  | \
w:   |   | 
g2f4g2 f4 e4  | d4 eg^2/4fe e6z2  | 
w:   |   | 
abc'4ba a3g =fef2  | e=fg4a2 g2f2 e2d2  | \
w:  TESLİM  |   | 
c2d4e2 d2e2 d2c2  | 
w:   | 
g2=f2 e2d2 dccB c4  | G2c4d2 e8  | d3e =f2g2 e2f2 d2e2  | 
w:   |   |   | 
c2d2 c2B2 c3B A4  | e=fef agfe d4 z4  | \
w:   |   | 
c3d e4 dede g=fed  | 
w:   | 
c4 z4 B3c d4  | c3d e2dc B2c2 d2cB  | \
w:   |   | 
A2B2 dcBA G2A2 B2c2  | 
w:   | 
d3c B2c2 B4 A4  | G4 AcBA A8  | e2=f2 e2d2 ^c2d2 e2^2/4f2  | \
w:   |   |  2. HANE  | 
d2g4fe e8  | 
w:   | 
=f2e2 f2g2 a2g2 f2e2  | g2=f2 e2d2 e3d c4  | \
w:   |   | 
d4 e3d c3B dBBA  | 
w:   | 
A6G2 e3d ^cde=f  | d4 e4 e2=f2 e2d2  | \
w:   |   | 
z2g2 =f2e2 edd^c d4  | 
w:   | 
d4 e2f2 g2a2 g2^2/4f2  | g2f2 g2ac' bagf e4  | \
w:   |   | 
z2c'4c'b b3a a3g  | 
w:   | 
g3f f3e e3d agfg  | a4 f2g2 f4 e4  | \
w:   |   | 
d4 eg^2/4fe e8  | 
w:   | 
abc'4ba a3g =fef2  | e=fg4a2 g2f2 e2d2  | \
w:  TESLİM  |   | 
c2d4e2 d2e2 d2c2  | 
w:   | 
g2=f2 e2d2 dccB c4  | G2c4d2 e8  | d3e =f2g2 e2f2 d2e2  | 
w:   |   |   | 
c2d2 c2B2 c3B A4  | e=fef agfe d4 z4  | \
w:   |   | 
c3d e4 dede g=fed  | 
w:   | 
c4 z4 B3c d4  | c3d e2dc B2c2 d2cB  | \
w:   |   | 
A2B2 dcBA G2A2 B2c2  | 
w:   | 
d3c B2c2 B4 A4  | G4 AcBA A8  | z2c'2 b2a2 gfe2 f2g2  | 
w:   |   |   | 
f2g2 a2b2 g4 a4  | d4 a3g a8  | _b3a g2a2 g2a2 g2=f2  | \
w:   |   |   | 
z2_b2 a2g2 =f3e edd^c  | 
w:   | 
d4 e2=f2 g2_b2 a2g2  | =f2e2 d2^c'2 _7/8b3a ^g2a2  | \
w:   |   | 
^g2a2 _7/8b^c'ba a8  | 
w:   | 
^c'2d'4c'_7/8b b3a c'2ba  | a3g _b2ag g3=f a2gf  | \
w:   |   | 
=f4 e2f2 g2_7/8a2 g2f2  | 
w:   | 
g2=f2 c'_1/4b_7/8ag f2e2 =agfe  | \
w:   | 
d2^c2 d2e2 d2e6  | f2g6 g_bag =fed2  | 
w:   |   | 
e2=f6 fagf edc2  | g2=f2 e2d2 c3B A2B2  | \
w:   |   | 
c2d2 c2B2 c4 d4  | 
w:   | 
z4 e2f2 g2f2 a2g2  | =f3e d2e2 d3c d2g2  | \
w:   |   | 
z2f4d2 e2=f2 e2d2  | 
w:   | 
^c4 =fede d6z2  | abc'4ba a3g =fef2  | \
w:   |  TESLİM  | 
e=fg4a2 g2f2 e2d2  | 
w:   | 
c2d4e2 d2e2 d2c2  | g2=f2 e2d2 dccB c4  | \
w:   |   | 
G2c4d2 e8  | d3e =f2g2 e2f2 d2e2  | 
w:   |   | 
c2d2 c2B2 c3B A4  | e=fef agfe d4 z4  | \
w:   |   | 
c3d e4 dede g=fed  | 
w:   | 
c4 z4 B3c d4  | c3d e2dc B2c2 d2cB  | \
w:   |   | 
A2B2 dcBA G2A2 B2c2  | 
w:   | 
d3c B2c2 B4 A4  | G4 AcBA A8  | |


